X: 2
T: The Humours Of Whiskey
R: slip jig
M: 9/8
L: 1/8
K: Dmaj
|: {a}gfe {g}fB{G}B {g}fB{G}B | {a}gfe {g}fB{G}B {g}fga | gfe {g}fB{G}B {g}fB{G}B | agf {g}efd {cd}cBA :||:{Gdc}d2e {g}fdf {g}ec{d}A | {Gdc}d2e {g}fed {g}fga | {Gdc}d2e {g}fdf {g}ec{d}A | agf {g}efd {cd}cBA :|


Tune 204	Setting 204

